apps/www/public/images/launchweek/11/days/d5-light-mobile.svg

<svg width="349" height="231" viewBox="0 0 349 231" fill="none" xmlns="http://www.w3.org/2000/svg">
<rect width="349" height="230" transform="translate(0 0.34375)" fill="white"/>
<path d="M31.6807 44.085C31.6807 39.6667 35.2624 36.085 39.6807 36.085H309.32C313.738 36.085 317.32 39.6667 317.32 44.085V75.7213H31.6807V44.085Z" fill="#FCFCFC"/>
<path d="M31.6807 44.085C31.6807 39.6667 35.2624 36.085 39.6807 36.085H309.32C313.738 36.085 317.32 39.6667 317.32 44.085V75.7213H31.6807V44.085Z" stroke="#DFDFDF" stroke-width="0.5"/>
<rect x="39.6807" y="44.085" width="23.6363" height="23.6363" rx="4" fill="#FCFCFC" stroke="#EDEDED" stroke-width="0.738635"/>
<path fill-rule="evenodd" clip-rule="evenodd" d="M51.828 49.9529C50.2882 51.3311 48.2636 52.1789 46.0416 52.209C45.9609 52.6897 45.9189 53.1835 45.9189 53.6871C45.9189 57.5464 48.3854 60.8296 51.828 62.0463C55.2706 60.8296 57.7371 57.5464 57.7371 53.6871C57.7371 53.1835 57.6951 52.6897 57.6144 52.209C55.3924 52.1789 53.3679 51.3311 51.828 49.9529ZM52.5667 58.8575C52.5667 59.2655 52.236 59.5962 51.828 59.5962C51.4201 59.5962 51.0894 59.2655 51.0894 58.8575C51.0894 58.4496 51.4201 58.1189 51.828 58.1189C52.236 58.1189 52.5667 58.4496 52.5667 58.8575ZM52.5667 53.6871C52.5667 53.2791 52.236 52.9484 51.828 52.9484C51.4201 52.9484 51.0894 53.2791 51.0894 53.6871V55.903C51.0894 56.3109 51.4201 56.6416 51.828 56.6416C52.236 56.6416 52.5667 56.3109 52.5667 55.903V53.6871Z" fill="#B2B2B2"/>
<rect x="71.3169" y="46.1284" width="178.481" height="6.27475" rx="3.13737" fill="#EDEDED"/>
<rect x="285.457" y="46.1284" width="23.8139" height="6.27475" rx="3.13737" fill="#EDEDED"/>
<rect x="71.3169" y="59.4031" width="237.954" height="6.27475" rx="3.13737" fill="#FCFCFC"/>
<rect x="31.6807" y="115.357" width="285.591" height="39.6363" fill="#FCFCFC"/>
<rect x="31.6807" y="115.357" width="285.591" height="39.6363" stroke="#DFDFDF" stroke-width="0.5"/>
<rect x="39.6807" y="123.357" width="23.6363" height="23.6363" rx="4" fill="#FCFCFC" stroke="#EDEDED" stroke-width="0.738635"/>
<path d="M52.4436 132.098H57.3679M57.3679 132.098V137.022M57.3679 132.098L52.4436 137.022L49.9815 134.56L46.2883 138.253" stroke="#B2B2B2" stroke-width="1.4" stroke-linecap="round" stroke-linejoin="round"/>
<rect x="71.3169" y="125.401" width="178.481" height="6.27475" rx="3.13737" fill="#EDEDED"/>
<rect x="285.457" y="125.401" width="23.8139" height="6.27475" rx="3.13737" fill="#EDEDED"/>
<rect x="71.3169" y="138.676" width="237.954" height="6.27475" rx="3.13737" fill="#FCFCFC"/>
<path d="M31.6807 154.994H317.271V186.63C317.271 191.049 313.689 194.63 309.271 194.63H39.6807C35.2624 194.63 31.6807 191.048 31.6807 186.63V154.994Z" fill="#FCFCFC"/>
<path d="M31.6807 154.994H317.271V186.63C317.271 191.049 313.689 194.63 309.271 194.63H39.6807C35.2624 194.63 31.6807 191.048 31.6807 186.63V154.994Z" stroke="#DFDFDF" stroke-width="0.5"/>
<rect x="39.6807" y="162.994" width="23.6363" height="23.6363" rx="4" fill="#FCFCFC" stroke="#EDEDED" stroke-width="0.738635"/>
<path d="M52.4436 171.735H57.3679M57.3679 171.735V176.659M57.3679 171.735L52.4436 176.659L49.9815 174.197L46.2883 177.89" stroke="#B2B2B2" stroke-width="1.4" stroke-linecap="round" stroke-linejoin="round"/>
<rect x="71.3169" y="165.037" width="178.481" height="6.27475" rx="3.13737" fill="#EDEDED"/>
<rect x="285.457" y="165.037" width="23.8139" height="6.27475" rx="3.13737" fill="#EDEDED"/>
<rect x="71.3169" y="178.312" width="237.954" height="6.27475" rx="3.13737" fill="#FCFCFC"/>
<rect x="31.6807" y="75.7212" width="285.591" height="39.6363" fill="#FCFCFC"/>
<rect x="31.6807" y="75.7212" width="285.591" height="39.6363" stroke="#B2B2B2" stroke-width="0.5"/>
<rect x="39.6807" y="83.7212" width="23.6363" height="23.6363" rx="4" fill="#EDEDED" stroke="#B2B2B2" stroke-width="0.738635"/>
<path fill-rule="evenodd" clip-rule="evenodd" d="M51.828 89.5891C50.2882 90.9673 48.2636 91.8151 46.0416 91.8452C45.9609 92.3259 45.9189 92.8197 45.9189 93.3233C45.9189 97.1826 48.3854 100.466 51.828 101.683C55.2706 100.466 57.7371 97.1826 57.7371 93.3233C57.7371 92.8197 57.6951 92.3259 57.6144 91.8452C55.3924 91.8151 53.3679 90.9673 51.828 89.5891ZM52.5667 98.4938C52.5667 98.9017 52.236 99.2324 51.828 99.2324C51.4201 99.2324 51.0894 98.9017 51.0894 98.4938C51.0894 98.0858 51.4201 97.7551 51.828 97.7551C52.236 97.7551 52.5667 98.0858 52.5667 98.4938ZM52.5667 93.3233C52.5667 92.9154 52.236 92.5847 51.828 92.5847C51.4201 92.5847 51.0894 92.9154 51.0894 93.3233V95.5392C51.0894 95.9472 51.4201 96.2779 51.828 96.2779C52.236 96.2779 52.5667 95.9472 52.5667 95.5392V93.3233Z" fill="#525252"/>
<rect x="71.3169" y="85.7646" width="178.481" height="6.27475" rx="3.13737" fill="#525252"/>
<rect x="285.457" y="85.7646" width="23.8139" height="6.27475" rx="3.13737" fill="#E6E6E6"/>
<rect x="71.3169" y="99.0393" width="237.954" height="6.27475" rx="3.13737" fill="#E6E6E6"/>
</svg>

<svg xmlns="http://www.w3.org/2000/svg" width="349" height="231" fill="none" viewBox="0 0 349 231"><path fill="#fff" d="M0 .344h349v230H0z"/><path fill="#fcfcfc" d="M31.68 44.085a8 8 0 0 1 8-8h269.64a8 8 0 0 1 8 8v31.636H31.68z"/><path stroke="#dfdfdf" stroke-width=".5" d="M31.68 44.085a8 8 0 0 1 8-8h269.64a8 8 0 0 1 8 8v31.636H31.68z"/><rect width="23.636" height="23.636" x="39.681" y="44.085" fill="#fcfcfc" stroke="#ededed" stroke-width=".739" rx="4"/><path fill="#b2b2b2" fill-rule="evenodd" d="M51.828 49.953a8.83 8.83 0 0 1-5.786 2.256q-.122.721-.123 1.478a8.87 8.87 0 0 0 5.909 8.36 8.87 8.87 0 0 0 5.786-9.838 8.83 8.83 0 0 1-5.786-2.256m.739 8.904a.739.739 0 1 1-1.478 0 .739.739 0 0 1 1.478 0m0-5.17a.739.739 0 1 0-1.478 0v2.216a.739.739 0 0 0 1.478 0z" clip-rule="evenodd"/><rect width="178.481" height="6.275" x="71.317" y="46.128" fill="#ededed" rx="3.137"/><rect width="23.814" height="6.275" x="285.457" y="46.128" fill="#ededed" rx="3.137"/><rect width="237.954" height="6.275" x="71.317" y="59.403" fill="#fcfcfc" rx="3.137"/><path fill="#fcfcfc" d="M31.681 115.357h285.591v39.636H31.681z"/><path stroke="#dfdfdf" stroke-width=".5" d="M31.681 115.357h285.591v39.636H31.681z"/><rect width="23.636" height="23.636" x="39.681" y="123.357" fill="#fcfcfc" stroke="#ededed" stroke-width=".739" rx="4"/><path stroke="#b2b2b2" stroke-linecap="round" stroke-linejoin="round" stroke-width="1.4" d="M52.444 132.098h4.924m0 0v4.924m0-4.924-4.924 4.924-2.463-2.462-3.693 3.693"/><rect width="178.481" height="6.275" x="71.317" y="125.401" fill="#ededed" rx="3.137"/><rect width="23.814" height="6.275" x="285.457" y="125.401" fill="#ededed" rx="3.137"/><rect width="237.954" height="6.275" x="71.317" y="138.676" fill="#fcfcfc" rx="3.137"/><path fill="#fcfcfc" d="M31.68 154.994h285.591v31.636a8 8 0 0 1-8 8H39.681a8 8 0 0 1-8-8z"/><path stroke="#dfdfdf" stroke-width=".5" d="M31.68 154.994h285.591v31.636a8 8 0 0 1-8 8H39.681a8 8 0 0 1-8-8z"/><rect width="23.636" height="23.636" x="39.681" y="162.994" fill="#fcfcfc" stroke="#ededed" stroke-width=".739" rx="4"/><path stroke="#b2b2b2" stroke-linecap="round" stroke-linejoin="round" stroke-width="1.4" d="M52.444 171.735h4.924m0 0v4.924m0-4.924-4.924 4.924-2.463-2.462-3.693 3.693"/><rect width="178.481" height="6.275" x="71.317" y="165.037" fill="#ededed" rx="3.137"/><rect width="23.814" height="6.275" x="285.457" y="165.037" fill="#ededed" rx="3.137"/><rect width="237.954" height="6.275" x="71.317" y="178.312" fill="#fcfcfc" rx="3.137"/><path fill="#fcfcfc" d="M31.681 75.721h285.591v39.636H31.681z"/><path stroke="#b2b2b2" stroke-width=".5" d="M31.681 75.721h285.591v39.636H31.681z"/><rect width="23.636" height="23.636" x="39.681" y="83.721" fill="#ededed" stroke="#b2b2b2" stroke-width=".739" rx="4"/><path fill="#525252" fill-rule="evenodd" d="M51.828 89.59a8.83 8.83 0 0 1-5.786 2.255q-.122.722-.123 1.478a8.87 8.87 0 0 0 5.909 8.36 8.87 8.87 0 0 0 5.786-9.838 8.83 8.83 0 0 1-5.786-2.256m.739 8.904a.739.739 0 1 1-1.478 0 .739.739 0 0 1 1.478 0m0-5.17a.739.739 0 0 0-1.478 0v2.215a.739.739 0 1 0 1.478 0z" clip-rule="evenodd"/><rect width="178.481" height="6.275" x="71.317" y="85.765" fill="#525252" rx="3.137"/><rect width="23.814" height="6.275" x="285.457" y="85.765" fill="#e6e6e6" rx="3.137"/><rect width="237.954" height="6.275" x="71.317" y="99.039" fill="#e6e6e6" rx="3.137"/></svg>
